img/favicons/favicon.svg

<svg width="32" height="32" viewBox="0 0 32 32" fill="none" xmlns="http://www.w3.org/2000/svg">
<rect width="32" height="32" rx="4" fill="#83B3D3"/>
<path d="M4.25439 8.18188L15.9271 21.9637L27.5635 8.25461L4.25439 8.18188Z" fill="#23A9E1"/>
<path d="M13.1275 13.3455H19.4184C18.9457 13.0546 17.8184 11.6728 17.2366 12.1819C17.2002 12.2183 15.4548 10.1092 14.3275 11.1274C13.3457 12.0364 12.8729 11.0183 11.782 11.7092C10.4729 12.5819 12.5093 13.0546 13.1275 13.3455ZM22.8366 12.0728L19.2729 12.1092C20.6911 10.4728 21.3093 10.6546 22.8366 12.0728Z" fill="white"/>
<path d="M26.4 9.30909V8.43636H27.1636L26.4 9.30909ZM8.50909 12.7273C8.54546 12.7636 9.38182 11.8545 10.7273 10.9455C11.9636 10.1091 13.8545 9.16364 15.9636 9.16364C18.0727 9.16364 20 10.1455 21.2364 10.9818C22.5818 11.8545 23.4182 12.7273 23.4545 12.7636L22.5455 13.8545C20.9091 14.0727 19.7455 15.2727 18.1455 15.0182C17.3455 14.8727 17.3091 14.4364 17.0909 13.9636C16.9091 13.6 16.6182 13.6727 16.2545 13.5273C15.9273 13.3818 15.7091 13.1273 15.0182 13.2727C14.4364 13.4182 14.3636 14.3273 13.6 14.2909C13.2 14.2545 13.1636 13.7091 12.5818 12.9818C11.0909 11.2 9.73112 11.422 8.78567 13.0583L8.50909 12.7273ZM5.45455 8.43636V9.12727L4.87273 8.43636H5.45455ZM25.0545 8.43636H26.2182V9.52727L25.0545 10.9091V8.43636ZM23.5636 12.5818V8.43636H24.8364V11.1273L23.5636 12.5818ZM23.3818 8.8V12.4C22.9818 12 22.5455 11.6364 22.0727 11.3091L23.3818 8.8ZM21.8909 8.69091V11.1636C21.7091 11.0545 21.5636 10.9091 21.3455 10.8C21.0909 10.6545 20.8364 10.4727 20.5455 10.3273L21.8909 8.69091ZM20.2909 8.61818V10.1818C19.9273 10 19.5273 9.81818 19.1636 9.63636L20.2909 8.61818ZM20.5091 8.43636H21.8545L20.5091 10.1091V8.43636ZM22.0727 8.43636H23.3818L22.0727 11.0182V8.43636ZM18.8727 8.43636H20.2909L19.0182 9.56364C18.9818 9.56364 18.9455 9.52727 18.9091 9.52727L18.8727 8.43636ZM18.6909 8.58182V9.45455C18.3273 9.30909 17.9636 9.2 17.5636 9.12727L18.6909 8.58182ZM17.1636 8.58182V9.05455C16.9091 9.01818 16.6545 8.98182 16.3636 8.94545L17.1636 8.58182ZM14.6909 8.58182L15.4909 8.94545C15.2 8.94545 14.9455 8.98182 14.6909 9.05455V8.58182ZM13.2 8.58182L14.3273 9.12727C13.9273 9.2 13.5636 9.30909 13.2 9.45455V8.58182ZM14.5091 9.01818L13.3091 8.43636H14.5091V9.01818ZM15.7818 8.87273L14.7636 8.4H15.7818V8.87273ZM16.0364 8.43636H17.0909L16.0364 8.90909V8.43636ZM17.3818 8.43636H18.5455L17.3818 9.01818V8.43636ZM12.8727 9.56364L11.6 8.43636H13.0182V9.52727L12.8727 9.56364ZM11.5636 8.61818L12.6909 9.6C12.2909 9.74545 11.9273 9.92727 11.5636 10.1455V8.61818ZM10 8.69091L11.3091 10.3273C10.8364 10.5818 10.4 10.8727 10 11.2V8.69091ZM8.47273 8.8L9.78182 11.3455C9.30909 11.7091 8.87273 12.0727 8.47273 12.5091V8.8ZM9.81818 10.9818L8.50909 8.4H9.81818V10.9818ZM11.3818 10.0727L10.0364 8.4H11.3818V10.0727ZM6.8 10.7273L5.63636 9.34545V8.43636H6.8V10.7273ZM7.01818 8.43636H8.29091V12.5091L7.01818 10.9818V8.43636ZM4 8V13.3091L16 27.8182L28 13.4545V8H4Z" fill="#491213"/>
<path d="M15.0547 24.7272L16.0002 23.2L16.9456 24.7272L16.0002 26.2545L15.0547 24.7272Z" fill="#23A9E1"/>
<path d="M17.8907 19.1272C16.6544 18.3999 16.9453 17.8545 17.9635 17.3454C18.5089 17.0909 19.7089 16.109 20.1817 16.4363L17.8907 19.1272ZM17.0544 20.0363C16.3271 19.9999 15.4907 19.8909 14.7635 20.0727C15.1998 20.1818 16.2907 20.509 15.2726 20.7636C15.6362 21.2727 16.218 21.2363 16.5817 20.7999C16.4362 20.7272 16.3271 20.6181 16.218 20.5454C16.618 20.4363 16.9817 20.2181 17.0544 20.0363ZM17.4907 19.4545C17.1635 19.1636 16.7998 19.1636 16.5089 19.4545C16.0726 18.6909 14.5453 18.9454 13.818 18.8363C14.218 19.7818 17.3089 19.9636 17.4907 19.4545ZM15.018 18.6545C14.4362 18.4727 12.5453 18.509 13.7817 17.9999C14.1817 17.8545 16.218 18.0363 15.018 18.6545ZM15.7453 17.5636C15.5635 17.1636 15.8907 16.6908 16.3635 17.0545C16.7998 17.3454 16.1453 17.7818 15.7453 17.5636ZM14.6908 17.5999C13.8544 17.8545 12.7635 17.309 14.1089 17.0545C14.9453 16.8727 15.818 17.2363 14.6908 17.5999C14.7271 17.5999 14.6544 17.5999 14.6908 17.5999ZM13.7453 15.3454C13.5635 15.9272 13.1998 16.0363 13.2362 15.3454C13.2726 14.509 13.818 14.7272 14.3998 14.3999C14.8726 14.1454 15.1271 13.1636 15.9635 13.7454C16.3271 13.9999 16.7635 13.7818 16.8726 14.1818C16.8726 14.1454 15.818 16.6181 16.3998 16.6181C15.2362 16.6181 15.7453 15.2363 16.1817 14.2908C15.7453 14.509 15.0544 15.8545 15.6362 16.109C15.3453 16.509 14.3998 17.0545 13.9271 16.6545C13.5271 16.2908 13.7453 15.8181 13.7453 15.3454ZM12.2908 16.3636C10.2544 16.3636 11.6362 13.2363 12.3271 13.4181C13.1271 13.6727 13.018 16.3999 12.2908 16.3636ZM10.0362 13.3818C9.09075 13.3454 9.49075 12.4363 10.1453 12.2545C10.7635 12.0727 12.0362 12.6545 12.4726 13.0545C11.818 13.2727 10.9817 13.2363 10.2544 13.2727C10.1817 12.5454 9.99984 12.7999 10.0362 13.3818Z" fill="#DC6243"/>
<path d="M17.0183 17.3819C15.9638 16.291 18.582 16.4001 19.0183 16.0001C19.3093 16.1092 21.5638 14.0364 22.1093 14.1819C21.7093 14.6546 20.8729 16.1092 20.2911 16.1092C19.8183 16.1092 19.3456 16.0364 18.982 16.3637C18.4365 16.8728 17.5638 17.1273 17.0183 17.3819Z" fill="#F49774"/>
<path d="M17.3457 16.0727C16.7639 16.4 16.2184 15.1636 17.2366 15.2727C17.8912 15.3454 18.5821 15.2 19.2002 15.3091C18.7275 15.8545 18.073 16.1454 17.3457 16.0727Z" fill="#F4B1A4"/>
<path d="M9.49066 15.5999C9.59975 15.7454 9.70884 15.8909 9.67248 16.109C9.67248 16.2545 9.4543 16.4727 9.59975 16.5454L10.1452 15.8909C9.99975 15.8545 8.87248 14.509 8.87248 14.3636L8.10884 14.7636C8.14521 14.909 8.39975 14.7636 8.54521 14.7636C8.72703 14.7636 8.87248 14.909 9.01793 15.0181C8.61793 15.3454 7.63612 16.2181 7.52703 16.2181C7.49066 16.2181 7.27248 16.0727 7.27248 16.2181C7.27248 16.2909 7.49066 16.4727 7.52703 16.509L8.03612 17.1272C8.18157 17.0545 7.99975 16.9454 8.07248 16.8363C8.10884 16.7636 9.23612 15.8545 9.49066 15.5999ZM8.2543 13.9636C8.36339 13.9272 8.39975 14.0727 8.47248 13.9636L7.89066 13.2727C7.81793 13.1636 7.70884 13.0545 7.70884 13.2727C7.74521 13.4181 6.2543 14.6181 6.18157 14.6545C6.07248 14.6909 5.99975 14.5454 5.92703 14.6909C6.10884 14.909 6.2543 15.0909 6.43612 15.309C6.50884 15.3818 6.54521 15.4545 6.61793 15.5272C6.69066 15.5999 6.6543 15.3818 6.6543 15.3818C6.61793 15.2727 6.76339 15.1636 6.87248 15.0909C7.23612 14.7272 8.14521 13.9636 8.2543 13.9636ZM6.18157 13.7454C5.78157 13.8545 5.30884 13.709 5.19975 13.2727C5.0543 12.8363 5.34521 12.3999 5.67248 12.1454C5.99975 11.8909 6.50884 11.9272 6.69066 12.3272C6.76339 12.509 6.72703 12.7272 6.6543 12.909C6.61793 13.0181 6.50884 13.1272 6.6543 13.1999C6.87248 12.9454 7.0543 12.6909 7.27248 12.4363C7.01793 12.2909 6.90884 12.0363 6.72703 11.8181C6.50884 11.5636 6.2543 11.309 5.89066 11.2727C5.19975 11.1636 4.58157 11.8909 4.50884 12.509C4.47248 12.8363 4.58157 13.1636 4.79975 13.4545C4.98157 13.6727 5.23612 13.8545 5.38157 14.109C5.4543 14.1454 6.03612 13.8545 6.14521 13.8181C6.21793 13.8181 6.18157 13.7818 6.18157 13.7454C6.18157 13.7454 5.99975 13.8181 6.18157 13.7454ZM15.4543 22.3272C15.1998 22.1454 14.5088 21.2363 14.3634 21.0545L14.2907 20.9454L14.2179 20.9818C14.1816 21.0181 14.2543 21.1272 14.2179 21.1999C14.0361 21.4908 12.8725 22.3636 12.7998 22.4363C12.6543 22.509 12.5088 22.3999 12.4361 22.509C12.6179 22.7272 13.0907 23.3454 13.1634 23.3454C13.2725 23.3454 13.1998 23.1636 13.1998 23.1272C13.2361 23.0545 13.8179 22.5454 14.0361 22.3636C14.1088 22.2908 14.1816 22.4727 14.2543 22.5454C14.327 22.6545 14.3634 22.7999 14.327 22.909C14.2907 22.9818 14.1452 23.1272 14.2543 23.1999C14.3998 23.0181 14.7998 22.5454 14.8725 22.4727C14.9452 22.3999 14.727 22.4727 14.7634 22.4363C14.6907 22.4727 14.5816 22.509 14.5088 22.4363C14.4725 22.4363 14.2543 22.1818 14.2907 22.1454C14.3998 22.0727 14.5088 21.9272 14.6543 21.8909C14.8725 21.8545 15.0179 22.2545 15.0543 22.3999C15.0907 22.5454 15.0907 22.6909 15.0179 22.7999C14.9816 22.909 14.9088 22.9818 15.0179 23.0181L15.527 22.3272C15.527 22.3636 15.4907 22.3636 15.4543 22.3272C15.4907 22.3636 15.4179 22.3272 15.4543 22.3272ZM12.1088 19.0908C11.8543 19.0908 11.5998 19.1999 11.3816 19.3818C10.8725 19.8181 10.7998 20.5818 11.1998 21.1272C11.6725 21.7454 12.4361 21.8181 13.0543 21.3818C13.5634 20.9454 13.6361 20.1818 13.2361 19.6363C12.9452 19.2727 12.5088 19.0908 12.1088 19.0908ZM12.5452 19.5999C12.8725 19.5636 13.0907 19.8909 12.9452 20.2545C12.7998 20.6181 12.4361 20.9818 12.0725 21.1272C11.6361 21.309 11.3452 20.9454 11.527 20.509C11.6725 20.1454 12.0361 19.7818 12.3998 19.6363C12.4361 19.6363 12.4725 19.5999 12.5452 19.5999ZM11.527 17.9272C11.6361 17.9272 11.7452 18.0727 11.8179 17.9272L11.3088 17.309C11.1634 17.3818 11.3088 17.4545 11.2725 17.5272C11.1998 17.6363 10.6543 17.709 10.5088 17.7454C10.5452 17.5999 10.727 17.1272 10.7998 17.0908C10.9452 16.9818 11.0179 17.1999 11.0907 17.0545L10.4361 16.2909C10.3634 16.2181 10.2907 16.0363 10.2179 16.1454C10.2179 16.1454 10.2179 16.509 10.1816 16.5454C10.1452 16.6181 9.96339 17.4181 9.74521 17.5999C9.63612 17.709 9.19975 18.0727 9.09066 18.109C8.98157 18.1454 8.90884 17.9636 8.79975 18.109L9.38157 18.7999C9.41793 18.8363 9.52703 19.0181 9.56339 19.0181C9.67248 19.0545 9.56339 18.7999 9.59975 18.7636C9.63612 18.6545 10.1816 18.109 10.4361 18.0727C10.7634 17.9999 11.1634 17.8908 11.527 17.9272C11.5998 17.9272 11.4543 17.9272 11.527 17.9272ZM20.327 20.3636C20.3634 20.509 20.3998 20.6908 20.3634 20.8363C20.327 21.0545 20.1452 21.5272 19.8543 21.3818C19.5634 21.2363 19.3452 20.9818 19.0907 20.7636C19.2725 20.5454 19.4543 20.3636 19.7816 20.4727C19.8543 20.509 19.927 20.4727 19.8543 20.3999C19.7452 20.3272 19.127 19.9272 19.0907 19.9636C19.0179 20.0363 19.1998 20.1818 19.127 20.3272C19.0907 20.4363 18.9816 20.509 18.9088 20.6181C18.727 20.4727 18.4725 20.3272 18.6543 20.0727C18.7998 19.9272 18.9452 19.7818 19.1634 19.7454C19.3088 19.709 19.5998 19.8545 19.6361 19.709C19.3816 19.5999 19.127 19.4545 18.8725 19.3454C18.9088 19.5272 18.0725 20.3999 17.8907 20.6181C17.8543 20.6545 17.7452 20.7636 17.7452 20.7999C17.7452 20.909 17.8907 20.8363 17.8907 20.8363C17.9998 20.7999 19.4907 22.0363 19.527 22.1454C19.5634 22.2181 19.4907 22.2908 19.527 22.3272C19.527 22.3272 19.5634 22.3636 19.5998 22.3636C19.7088 22.2545 20.6543 20.9454 20.8725 20.909C20.6907 20.6181 20.5088 20.3272 20.327 20.0363C20.1816 20.109 20.2907 20.2908 20.327 20.3636ZM18.8725 21.9636C18.3998 21.6363 17.5634 22.2545 17.4179 22.3272C17.1634 22.4363 16.9816 22.1818 17.127 21.9636C17.2361 21.7818 17.4543 21.6727 17.6725 21.6727C17.7452 21.6727 17.9998 21.709 17.9998 21.6727C18.0361 21.6363 18.0361 21.6363 17.9998 21.5999C17.7816 21.4545 17.5998 21.309 17.3816 21.1999C17.3452 21.4545 17.0543 21.5999 16.9088 21.7818C16.727 21.9999 16.5452 22.2545 16.5452 22.509C16.5452 22.7636 16.6907 23.0181 16.9452 23.1272C17.1998 23.2727 17.4907 23.1636 17.7452 23.0181C17.8907 22.909 18.0361 22.7999 18.1816 22.7272C18.3998 22.6181 18.727 22.7272 18.6543 23.0181C18.5816 23.2727 18.327 23.4908 18.0725 23.5636C17.927 23.5999 17.7816 23.5999 17.6361 23.5272C17.527 23.4909 17.4179 23.3454 17.3452 23.4908L18.1816 24.0727C18.2179 23.8909 18.2907 23.8181 18.4361 23.709C18.6179 23.5636 18.7634 23.3818 18.9088 23.1999C19.1998 22.8727 19.3088 22.2908 18.8725 21.9636ZM25.2725 11.7454C25.2725 11.7818 25.2725 11.7818 25.2725 11.7454L24.9452 12.109L24.6543 12.4727C24.5816 12.5454 24.5452 12.5818 24.6543 12.6545C24.8361 12.5454 25.927 14.3999 25.8543 14.6545C25.6725 14.7272 24.2179 13.4545 24.1816 13.3818C24.1816 13.3454 24.2543 13.1272 24.1452 13.1636C24.1088 13.1636 23.9634 13.3818 23.927 13.4181L23.7088 13.6727C23.7816 13.7818 23.8179 13.6727 23.927 13.6727C23.9998 13.709 24.3634 13.9999 24.4725 14.0727C24.2907 14.0727 23.8543 14.109 23.7816 14.109C23.5634 14.1454 23.6725 13.9636 23.527 13.8909L22.9816 14.5454L22.6543 14.909C22.6543 14.909 22.6543 14.909 22.6543 14.9454C22.727 15.0181 22.6907 14.9818 22.7998 14.9454C22.9088 14.909 24.3634 16.109 24.3998 16.1818C24.4725 16.2909 24.3634 16.3999 24.5088 16.4727L24.9452 15.9636C24.9816 15.9272 24.9816 15.9272 24.9452 15.9272C24.8361 15.8545 24.8361 15.9636 24.6907 15.9636C24.5816 15.9272 23.6361 15.1636 23.3088 14.8727L25.2361 14.7999C25.3088 14.7999 25.4907 15.0181 25.4907 15.0909C25.4543 15.1636 25.3816 15.2363 25.4907 15.2727C25.5998 15.1272 25.7088 15.0181 25.8179 14.8727L25.8543 14.7999C25.8907 14.7999 25.8907 14.7636 25.8907 14.7272L25.927 14.6909C26.0361 14.5818 26.3634 14.2181 26.327 14.1818C26.2179 14.0727 26.1816 14.2909 26.0361 14.1818C25.9634 14.109 25.7452 13.7454 25.7088 13.6727C25.6361 13.5636 25.8543 13.4545 25.927 13.4181C26.1088 13.309 26.6907 13.1272 26.7634 13.4909C26.7634 13.5636 26.6907 13.6363 26.727 13.6727C26.727 13.6727 26.7634 13.7454 26.7998 13.709L27.5634 12.7636C27.527 12.7272 27.527 12.7272 27.4907 12.6909C27.3088 12.8727 25.4907 12.1454 25.3816 12.0363C25.3452 11.9636 25.3452 11.7454 25.2725 11.7454ZM25.1998 12.6909C25.4907 12.7999 25.7452 12.909 26.0361 13.0545C25.9634 13.0909 25.8907 13.1272 25.8179 13.1636C25.7452 13.1999 25.6725 13.2727 25.5998 13.3454L25.1998 12.6909ZM22.7998 15.4909C22.3998 15.4545 21.9998 15.6363 21.7088 15.9636C21.2725 16.509 21.3088 17.309 21.8543 17.7454C22.3998 18.1818 23.1998 18.0727 23.6361 17.5636C24.0725 17.0181 24.0361 16.2181 23.4907 15.7818C23.3088 15.6363 23.0543 15.5272 22.7998 15.4909ZM22.2907 16.0727C22.5088 16.0727 22.7634 16.2181 22.9088 16.3272C23.1998 16.509 23.7088 16.9454 23.4543 17.309C23.4543 17.2727 23.4907 17.2727 23.4179 17.3454C23.127 17.6363 22.6179 17.3818 22.3634 17.1636C22.1088 16.9818 21.6361 16.5454 21.927 16.1818C22.0361 16.109 22.1452 16.0727 22.2907 16.0727ZM21.1634 17.6363C20.727 17.5999 20.2907 17.8181 19.9634 18.2181C19.7452 18.509 19.4907 18.7636 19.2725 19.0545C19.3452 19.1636 19.4543 19.0181 19.5634 19.0908C19.6725 19.1636 21.0543 20.2908 21.0543 20.3636C21.0907 20.4727 20.9816 20.509 21.0907 20.5818C21.127 20.6181 22.1452 19.3454 22.2543 19.1272C22.3998 18.7272 22.2907 18.2545 21.9634 17.9636C21.9998 17.9999 22.0361 17.9999 21.9634 17.9636C21.6725 17.7454 21.4179 17.6363 21.1634 17.6363ZM20.7634 18.2181C20.7998 18.2181 20.8361 18.2181 20.8725 18.2181C21.3816 18.3636 22.1088 18.9818 21.6361 19.5272C21.5634 19.5999 21.6361 19.5272 21.4907 19.6727C21.4179 19.7454 19.9634 18.5818 20.0361 18.509C20.1816 18.3272 20.5088 18.1818 20.7634 18.2181Z" fill="white"/>
</svg>

<svg width="32" height="32" fill="none" xmlns="http://www.w3.org/2000/svg"><rect width="32" height="32" rx="4" fill="#83B3D3"/><path d="m4.25 8.18 11.68 13.78 11.63-13.7-23.3-.08Z" fill="#23A9E1"/><path d="M13.13 13.35h6.29c-.47-.3-1.6-1.68-2.18-1.17-.04.04-1.79-2.07-2.91-1.05-.98.9-1.46-.11-2.55.58-1.3.87.73 1.34 1.35 1.64Zm9.7-1.28-3.56.04c1.42-1.64 2.04-1.46 3.57-.04Z" fill="#fff"/><path d="M26.4 9.3v-.86h.76l-.76.87ZM8.5 12.74c.05.03.88-.88 2.23-1.78a9.65 9.65 0 0 1 5.23-1.79c2.11 0 4.04.99 5.28 1.82 1.34.87 2.18 1.75 2.21 1.78l-.9 1.1c-1.64.21-2.8 1.41-4.4 1.16-.8-.15-.84-.58-1.06-1.06-.18-.36-.47-.29-.84-.43-.32-.15-.54-.4-1.23-.26-.58.15-.66 1.06-1.42 1.02-.4-.04-.44-.58-1.02-1.3-1.49-1.79-2.85-1.57-3.8.07l-.27-.33Zm-3.05-4.3v.7l-.58-.7h.58Zm19.6 0h1.17v1.1l-1.17 1.38V8.44Zm-1.49 4.15V8.44h1.28v2.69l-1.28 1.45Zm-.18-3.78v3.6c-.4-.4-.83-.76-1.3-1.1l1.3-2.5Zm-1.49-.1v2.46c-.18-.1-.33-.25-.54-.36-.26-.15-.51-.33-.8-.47l1.34-1.64Zm-1.6-.08v1.56l-1.13-.54 1.13-1.02Zm.22-.18h1.34l-1.34 1.67V8.44Zm1.56 0h1.31l-1.3 2.58V8.44Zm-3.2 0h1.42l-1.27 1.12c-.04 0-.07-.03-.11-.03l-.04-1.1Zm-.18.14v.87a5.76 5.76 0 0 0-1.13-.32l1.13-.55Zm-1.53 0v.47l-.8-.1.8-.37Zm-2.47 0 .8.37c-.29 0-.54.03-.8.1v-.47Zm-1.49 0 1.13.55c-.4.07-.77.18-1.13.32v-.87Zm1.3.44-1.2-.58h1.2v.58Zm1.28-.15-1.02-.47h1.02v.47Zm.26-.43h1.05l-1.05.47v-.47Zm1.34 0h1.17l-1.17.58v-.58Zm-4.5 1.12L11.6 8.44h1.42v1.09l-.15.03Zm-1.32-.94 1.13.98c-.4.15-.76.33-1.13.55V8.62ZM10 8.69l1.3 1.64c-.46.25-.9.54-1.3.87V8.7Zm-1.53.11 1.31 2.55c-.47.36-.9.72-1.3 1.16V8.8Zm1.35 2.18L8.5 8.4h1.3v2.58Zm1.56-.9L10.04 8.4h1.34v1.67Zm-4.58.65L5.64 9.35v-.91H6.8v2.29Zm.22-2.3h1.27v4.08l-1.27-1.53V8.44ZM4 8v5.3l12 14.52 12-14.37V8H4Z" fill="#491213"/><path d="M15.05 24.73 16 23.2l.95 1.53-.95 1.52-.95-1.52Z" fill="#23A9E1"/><path d="M17.9 19.13c-1.25-.73-.95-1.28.06-1.78.55-.26 1.75-1.24 2.22-.91l-2.29 2.69Zm-.85.9c-.72-.03-1.56-.14-2.29.04.44.11 1.53.44.51.7.37.5.95.47 1.31.03-.14-.07-.25-.18-.36-.25.4-.11.76-.33.83-.51Zm.44-.58c-.33-.29-.69-.29-.98 0-.44-.76-1.96-.5-2.7-.61.4.94 3.5 1.12 3.68.61Zm-2.47-.8c-.58-.18-2.47-.14-1.24-.65.4-.15 2.44.04 1.24.65Zm.73-1.09c-.19-.4.14-.87.61-.5.44.29-.21.72-.61.5Zm-1.06.04c-.84.25-1.93-.3-.58-.55.84-.18 1.7.19.58.55.04 0-.04 0 0 0Zm-.94-2.25c-.19.58-.55.69-.51 0 .03-.84.58-.62 1.16-.95.47-.25.73-1.24 1.56-.65.37.25.8.03.91.43 0-.03-1.05 2.44-.47 2.44-1.16 0-.65-1.38-.22-2.33-.43.22-1.13 1.56-.54 1.82-.3.4-1.24.94-1.71.54-.4-.36-.18-.83-.18-1.3Zm-1.46 1.01c-2.04 0-.65-3.12.04-2.94.8.25.69 2.98-.04 2.94Zm-2.25-2.98c-.95-.03-.55-.94.1-1.13.62-.18 1.9.4 2.33.8-.65.22-1.49.19-2.22.22-.07-.72-.25-.47-.21.11Z" fill="#DC6243"/><path d="M17.02 17.38c-1.06-1.09 1.56-.98 2-1.38.29.1 2.54-1.96 3.09-1.82-.4.47-1.24 1.93-1.82 1.93-.47 0-.94-.07-1.3.25-.55.51-1.43.77-1.97 1.02Z" fill="#F49774"/><path d="M17.35 16.07c-.59.33-1.13-.9-.11-.8.65.08 1.34-.07 1.96.04-.47.54-1.13.84-1.85.76Z" fill="#F4B1A4"/><path d="M9.5 15.6c.1.15.2.3.17.5 0 .15-.22.37-.07.45l.55-.66a7.3 7.3 0 0 1-1.28-1.53l-.76.4c.04.15.29 0 .44 0 .18 0 .32.15.47.26-.4.33-1.38 1.2-1.5 1.2-.03 0-.25-.15-.25 0 0 .07.22.25.26.29l.5.62c.15-.08-.03-.18.04-.3.04-.07 1.17-.98 1.42-1.23Zm-1.25-1.64c.11-.03.15.11.22 0l-.58-.69c-.07-.1-.18-.22-.18 0 .04.15-1.46 1.35-1.53 1.38-.1.04-.18-.1-.25.04l.5.62c.08.07.12.14.19.22.07.07.03-.15.03-.15-.03-.1.11-.22.22-.29a8.5 8.5 0 0 1 1.38-1.13Zm-2.07-.21c-.4.1-.87-.04-.98-.48-.15-.43.15-.87.47-1.12.33-.26.84-.22 1.02.18a.8.8 0 0 1-.04.58c-.03.1-.14.22 0 .29.22-.25.4-.5.62-.76-.25-.15-.36-.4-.54-.62-.22-.26-.48-.51-.84-.55-.69-.1-1.3.62-1.38 1.24-.04.33.07.65.29.94.18.22.44.4.58.66.07.04.66-.26.77-.3.07 0 .03-.03.03-.06 0 0-.18.07 0 0Zm9.27 8.58c-.25-.18-.94-1.1-1.09-1.28l-.07-.1-.07.03c-.04.04.03.15 0 .22-.18.3-1.35 1.16-1.42 1.24-.15.07-.3-.04-.36.07.18.22.65.84.72.84.11 0 .04-.19.04-.22.04-.08.62-.58.84-.77.07-.07.14.11.21.19.08.1.11.25.08.36-.04.07-.18.22-.08.29l.62-.73c.08-.07-.14 0-.1-.03-.08.03-.19.07-.26 0-.04 0-.26-.26-.22-.3.11-.07.22-.21.36-.25.22-.04.37.36.4.51.04.15.04.3-.03.4-.04.1-.11.18 0 .22l.5-.7c0 .04-.03.04-.07 0 .04.04-.03 0 0 0Zm-3.34-3.24c-.26 0-.51.11-.73.3a1.3 1.3 0 0 0-.18 1.74c.47.62 1.24.69 1.85.25.51-.43.59-1.2.19-1.74-.3-.37-.73-.55-1.13-.55Zm.44.51c.32-.04.54.3.4.65-.15.37-.51.73-.88.88-.43.18-.72-.18-.54-.62.14-.36.5-.73.87-.87.04 0 .07-.04.15-.04Zm-1.02-1.67c.1 0 .22.14.29 0l-.51-.62c-.15.07 0 .14-.04.22-.07.1-.62.18-.76.22.04-.15.22-.62.29-.66.15-.1.22.11.3-.04l-.66-.76c-.08-.07-.15-.25-.22-.14 0 0 0 .36-.04.4-.03.07-.22.87-.43 1.05a4 4 0 0 1-.66.5c-.1.05-.18-.14-.29 0l.58.7c.04.04.15.22.18.22.11.03 0-.22.04-.26.04-.1.58-.65.84-.69.32-.07.72-.18 1.09-.14.07 0-.08 0 0 0Zm8.8 2.43c.03.15.07.33.03.48-.03.21-.21.69-.5.54-.3-.14-.51-.4-.77-.62.18-.21.36-.4.7-.29.06.04.14 0 .06-.07-.1-.07-.72-.47-.76-.44-.07.08.11.22.04.37-.04.1-.15.18-.22.29-.18-.15-.44-.3-.26-.55.15-.14.3-.29.51-.32.15-.04.44.1.48-.04-.26-.11-.51-.26-.77-.36.04.18-.8 1.05-.98 1.27-.04.03-.14.14-.14.18 0 .1.14.04.14.04.11-.04 1.6 1.2 1.64 1.3.03.08-.04.15 0 .19 0 0 .03.03.07.03.1-.1 1.05-1.41 1.27-1.45l-.54-.87c-.15.07-.04.25 0 .32Zm-1.46 1.6c-.47-.32-1.3.3-1.45.37-.26.1-.44-.15-.3-.37.12-.18.33-.29.55-.29.08 0 .33.04.33 0 .04-.03.04-.03 0-.07-.22-.15-.4-.3-.62-.4-.03.25-.33.4-.47.58-.18.22-.36.47-.36.73 0 .25.14.5.4.62.25.14.54.03.8-.11.14-.11.29-.22.43-.3.22-.1.55 0 .47.3a.87.87 0 0 1-.58.54.6.6 0 0 1-.43-.03c-.11-.04-.22-.18-.3-.04l.84.58c.04-.18.11-.25.26-.36.18-.15.32-.33.47-.51.29-.33.4-.9-.04-1.24Zm6.4-10.21c0 .03 0 .03 0 0l-.32.36-.3.36c-.07.08-.1.11 0 .18.19-.1 1.28 1.75 1.2 2-.18.08-1.63-1.2-1.67-1.27 0-.03.07-.25-.03-.22-.04 0-.19.22-.22.26l-.22.25c.07.11.1 0 .22 0l.54.4c-.18 0-.62.04-.69.04-.22.04-.1-.15-.25-.22l-.55.66-.33.36v.04c.08.07.04.03.15 0 .1-.04 1.56 1.16 1.6 1.23.07.11-.04.22.1.3l.45-.52c.03-.03.03-.03 0-.03-.11-.08-.11.03-.26.03-.1-.03-1.05-.8-1.38-1.09l1.93-.07c.07 0 .25.22.25.3-.04.06-.1.14 0 .17.11-.14.22-.25.33-.4l.03-.07c.04 0 .04-.04.04-.07l.04-.04c.1-.1.43-.47.4-.5-.11-.12-.15.1-.3 0a4 4 0 0 1-.32-.52c-.07-.1.14-.22.22-.25.18-.11.76-.3.83.07 0 .07-.07.15-.03.18 0 0 .03.08.07.04l.76-.95-.07-.07c-.18.18-2-.54-2.1-.65-.04-.08-.04-.3-.12-.3Zm-.07.94c.3.11.55.22.84.36l-.22.11c-.07.04-.15.11-.22.19l-.4-.66Zm-2.4 2.8c-.4-.04-.8.15-1.1.47-.43.55-.4 1.35.15 1.79a1.3 1.3 0 0 0 1.79-.19c.43-.54.4-1.34-.15-1.78a1.48 1.48 0 0 0-.69-.29Zm-.5.58c.2 0 .46.15.6.26.3.18.8.62.55.98 0-.04.04-.04-.03.04-.3.29-.8.03-1.06-.19-.25-.18-.72-.61-.43-.98.1-.07.22-.1.36-.1Zm-1.14 1.57c-.43-.04-.87.18-1.2.58-.21.29-.47.54-.69.83.08.11.18-.03.3.04.1.07 1.48 1.2 1.48 1.27.04.11-.07.15.04.22.04.04 1.06-1.23 1.16-1.45.15-.4.04-.88-.29-1.17.04.04.08.04 0 0-.29-.21-.54-.32-.8-.32Zm-.4.58h.11c.51.14 1.24.76.77 1.3l-.15.15a5.7 5.7 0 0 1-1.45-1.16.89.89 0 0 1 .72-.3Z" fill="#fff"/></svg>
